src/topics/icons/glamorous.svg

<svg height="342" preserveAspectRatio="xMidYMid" viewBox="0 0 256 342" width="256" xmlns="http://www.w3.org/2000/svg"><g transform="translate(150.044444)"><path d="m60.18176 19.10528c-21.6860444-15.61742222-46.4739556-25.36817778-46.4739556-14.47466667 0 1.41866667-.2055111 174.58773367-.2055111 174.58773367h79.2042667v-122.6894226c.1863111-7.3251555-11.9765333-22.6261333-32.5248-37.4236444" fill="#d53a56"/><path d="m90.2803911 56.4782222c-4.0213333 5.4897778-23.5285333-1.9612444-43.5704889-16.6421333-20.0419555-14.6808889-33.0296889-31.03217779-29.0076444-36.52195557 4.0213333-5.48977777 23.5278222 1.96053334 43.5697778 16.64142227 20.0426666 14.6808888 33.0296888 31.0328888 29.0083555 36.5226666" fill="#e47176"/><path d="m5.45848889 341.707378h94.81457811v-10.666667h-94.81457811z" fill="#505457"/><path d="m7.11751111 196.048356h91.49653329v-81.540978h-91.49653329z" fill="#e8e8e3"/><path d="m5.45848889 209.203911h94.81457811v-13.155555h-94.81457811z" fill="#adbbb5"/><path d="m.24248889 331.751822h105.24515511v-122.547911h-105.24515511z" fill="#393d3e"/></g><path d="m198.328178 51.4503111c-8.738845.2645333-20.3904 2.1191111-35.748978 27.0101333-7.414044 14.2997334-12.7104 24.0618666-12.7104 24.0618666s-38.661689-3.9359999-64.3491556 10.8928c-16.1528888 9.003378-44.2225777 29.922845-38.3964444 62.229333 3.1779556 11.916089 13.5054222 25.686756 50.0487111 28.864.2645333.530489-55.0805333 19.066312-59.5818667 39.456712-3.1772444 15.094755 2.9127112 23.303111 30.1888 31.512177l-51.1089777 13.504711s-16.61724448 5.078045-16.6698667 19.543467v.1216c.00284444.992.0832 2.028089.25244444 3.108978 1.05884445 6.089955 11.38631116 23.832178 67.52639996 22.773333 22.2428445-1.853866 97.1839996-8.738844 96.3896886-59.052089-.265244-12.180622-10.062933-24.362666-29.393777-33.1008-17.212445-6.884977-37.8680893-14.564977-37.8680893-14.564977s-19.5953778-5.825423-3.1772445-15.093334c12.1806218-6.355911 18.8010668-8.4736 18.8010668-8.4736l6.3552-1.589333s46.077155-4.2368 66.731378-41.309867c2.912711-6.884266 21.173333-45.799111-29.105067-57.723022.778667-.206933 12.334222-31.1047111 27.251911-41.0503111 1.058133-.5290667 5.560178-1.3233778 3.4432 1.3233778-4.423111 5.5310222-9.591467 9.5985777-12.463644 16.4053333-5.361778 12.7068444 2.024533 24.797156 15.4112 26.081422 22.023822 2.113422 42.363733-27.2028442 29.543111-46.7619553-4.098134-6.2535111-11.316622-8.2823111-18.414222-8.2830223-.990578 0-1.9776.0398223-2.955378.1130667m-91.093334 145.2394669c-8.5646218-1.706667-9.2031996-23.292445-3.875555-47.706311 5.328355-24.413156 17.057422-42.235734 25.589333-40.373334 8.532622 1.8624 10.6368 22.703645 5.308445 47.1168-5.036089 23.076267-14.574934 41.144889-25.172623 41.147023-.6144 0-1.229511-.060445-1.8496-.184178m-49.519644 122.7456c.2652444-21.713778 18.272-43.164445 18.272-43.164445s9.0446222 3.426134 21.4897778 7.133156c22.4682662 7.236267 22.9980442 12.462933 21.6739552 18.882133-3.177955 17.275022-28.3342219 23.504356-37.3375997 25.093689-4.0049777.644267-7.3464889.920178-10.1326222.920178-13.2430222.000711-13.9655111-6.239289-13.9655111-8.864711" fill="#f93954"/></svg>

<?xml version="1.0" encoding="UTF-8"?>
<svg width="256px" height="342px" viewBox="0 0 256 342" version="1.1" xmlns="http://www.w3.org/2000/svg" xmlns:xlink="http://www.w3.org/1999/xlink" preserveAspectRatio="xMidYMid">
    <g>
				<g transform="translate(150.044444, 0.000000)">
						<path d="M60.18176,19.10528 C38.4957156,3.48785778 13.7078044,-6.26289778 13.7078044,4.63061333 C13.7078044,6.04928 13.5022933,179.218347 13.5022933,179.218347 L92.70656,179.218347 L92.70656,56.5289244 C92.8928711,49.2037689 80.7300267,33.9027911 60.18176,19.10528" fill="#D53A56"></path>
						<path d="M90.2803911,56.4782222 C86.2590578,61.968 66.7518578,54.5169778 46.7099022,39.8360889 C26.6679467,25.1552 13.6802133,8.80391111 17.7022578,3.31413333 C21.7235911,-2.17564444 41.23008,5.27466667 61.2720356,19.9555556 C81.3147022,34.6364444 94.3017244,50.9884444 90.2803911,56.4782222" fill="#E47176"></path>
						<polygon fill="#505457" points="5.45848889 341.707378 100.273067 341.707378 100.273067 331.040711 5.45848889 331.040711"></polygon>
						<polygon fill="#E8E8E3" points="7.11751111 196.048356 98.6140444 196.048356 98.6140444 114.507378 7.11751111 114.507378"></polygon>
						<polygon fill="#ADBBB5" points="5.45848889 209.203911 100.273067 209.203911 100.273067 196.048356 5.45848889 196.048356"></polygon>
						<polygon fill="#393D3E" points="0.242488889 331.751822 105.487644 331.751822 105.487644 209.203911 0.242488889 209.203911"></polygon>
				</g>
				<path d="M198.328178,51.4503111 C189.589333,51.7148444 177.937778,53.5694222 162.5792,78.4604444 C155.165156,92.7601778 149.8688,102.522311 149.8688,102.522311 C149.8688,102.522311 111.207111,98.5863111 85.5196444,113.415111 C69.3667556,122.418489 41.2970667,143.337956 47.1232,175.644444 C50.3011556,187.560533 60.6286222,201.3312 97.1719111,204.508444 C97.4364444,205.038933 42.0913778,223.574756 37.5900444,243.965156 C34.4128,259.059911 40.5027556,267.268267 67.7788444,275.477333 L16.6698667,288.982044 C16.6698667,288.982044 0.0526222222,294.060089 0,308.525511 L0,308.647111 C0.00284444444,309.639111 0.0832,310.6752 0.252444444,311.756089 C1.31128889,317.846044 11.6387556,335.588267 67.7788444,334.529422 C90.0216889,332.675556 164.962844,325.790578 164.168533,275.477333 C163.903289,263.296711 154.1056,251.114667 134.774756,242.376533 C117.562311,235.491556 96.9066667,227.811556 96.9066667,227.811556 C96.9066667,227.811556 77.3112889,221.986133 93.7294222,212.718222 C105.910044,206.362311 112.530489,204.244622 112.530489,204.244622 L118.885689,202.655289 C118.885689,202.655289 164.962844,198.418489 185.617067,161.345422 C188.529778,154.461156 206.7904,115.546311 156.512,103.6224 C157.290667,103.415467 168.846222,72.5176889 183.763911,62.5720889 C184.822044,62.0430222 189.324089,61.2487111 187.207111,63.8954667 C182.784,69.4264889 177.615644,73.4940444 174.743467,80.3008 C169.381689,93.0076444 176.768,105.097956 190.154667,106.382222 C212.178489,108.495644 232.5184,79.1793778 219.697778,59.6202667 C215.599644,53.3667556 208.381156,51.3379556 201.283556,51.3372444 C200.292978,51.3372444 199.305956,51.3770667 198.328178,51.4503111 M107.234844,196.689778 C98.6702222,194.983111 98.0316444,173.397333 103.359289,148.983467 C108.687644,124.570311 120.416711,106.747733 128.948622,108.610133 C137.481244,110.472533 139.585422,131.313778 134.257067,155.726933 C129.220978,178.8032 119.682133,196.871822 109.084444,196.873956 C108.470044,196.873956 107.854933,196.813511 107.234844,196.689778 M57.7152,319.435378 C57.9804444,297.7216 75.9872,276.270933 75.9872,276.270933 C75.9872,276.270933 85.0318222,279.697067 97.4769778,283.404089 C119.945244,290.640356 120.475022,295.867022 119.150933,302.286222 C115.972978,319.561244 90.8167111,325.790578 81.8133333,327.379911 C77.8083556,328.024178 74.4668444,328.300089 71.6807111,328.300089 C58.4376889,328.3008 57.7152,322.0608 57.7152,319.435378" fill="#F93954"></path>
    </g>
</svg>
